usr/share/icons/big-icons/symbolic/actions/distribute-vertical-margin.svg

<svg xmlns="http://www.w3.org/2000/svg" viewBox="0 0 16 16">
<defs id="defs3051">
<style id="current-color-scheme" type="text/css">
.ColorScheme-Text{color:#fcfcfc}
</style>
</defs>
<path d="M1 1v14h14V1zm1 1h12v12H2zm2 1v4h8V3zm1 1h6v2H5zM4 9v4h8V9zm1 1h6v2H5z" class="ColorScheme-Text" style="fill:currentColor;fill-opacity:1;stroke:none"/>
</svg>

<svg xmlns="http://www.w3.org/2000/svg" viewBox="0 0 16 16">
  <defs id="defs3051">
    <style type="text/css" id="current-color-scheme">
      .ColorScheme-Text {
        color:#eff0f1;
      }
      </style>
  </defs>
 <path style="fill:currentColor;fill-opacity:1;stroke:none" 
     d="M 1 1 L 1 15 L 15 15 L 15 1 L 1 1 z M 2 2 L 14 2 L 14 14 L 2 14 L 2 2 z M 4 3 L 4 7 L 12 7 L 12 3 L 4 3 z M 5 4 L 11 4 L 11 6 L 5 6 L 5 4 z M 4 9 L 4 13 L 12 13 L 12 9 L 4 9 z M 5 10 L 11 10 L 11 12 L 5 12 L 5 10 z "
     class="ColorScheme-Text"
     />
</svg>
